X:1
T:Shall We Know Each Other There?
T:Shall We Know Each Other There?
T:Robert Lowry, 1860
T:W. M.
T:Public Domain Courtesy of the Cyber Hymnal™
T:Public Domain Courtesy of the Cyber Hymnal™
C:Robert Lowry, 1860
Z:Public Domain
Z:Courtesy of the Cyber Hymnal™
%%score ( 1 2 ) ( 3 4 )
L:1/8
Q:1/4=100
M:4/4
K:Eb
V:1 treble 
V:2 treble 
V:3 bass 
V:4 bass 
V:1
 [GB]2 [EG]2 [EG][DF]E[DF] | [EG]4 E4 | [DF]2 [DF]2 [EG][DF]E[DF] | ([EG]4 [DF]4) | %4
w: 1.~When we hear the mu- sic|ring- ing|In the bright ce- les- tial|dome, *|
w: 2.~When the ho- ly an- gels|meet us,|As we go to join their|band; *|
w: 3.~Yes, my earth- worn soul re-|joic- es,|And my wea- ry heart grows|light, *|
w: 4.~Oh! ye wea- ry sad, and|tossed ones,|Droop not, faint not, by the|way; *|
 [GB]2 [EG]2 [EG][DF]E[DF] | [EG]4 E2 E[DF] | [EG]2 ([FA][EG]) [DF]2 [DF]2 | E8 | %8
w: When sweet an- gel voic- es|sing- ing Glad- ly|bid us * wel- come|home,|
w: Shall we know the friends that|greet us, In the|glor- ious * spir- it|land?|
w: For the thrill- ing an- gel|voic- es, And the|an- gel * fac- es|bright:|
w: Ye shall join the loved and|just ones In the|land of * per- fect|day!|
 [GB]2 [EG]2 [FA][GB][Ac][Fd] | [Ge]4 [GB]4 | [Ac]2 [EA]2 [Ac][ce][Bd][Ac] | [GB]8 | %12
w: To the land of an- cient|sto- ry,|Where the spir- it knows no|care,|
w: Shall we see the same eyes|shin- ing,|On us, as in days of|yore?|
w: That shall wel- come us in|Hea- ven,|Are the loved of long a-|go,|
w: Harp- strings touched by an- gel|fin- gers,|Mur- mured in my rap- tured|ear,|
 [Ge]2 [GB]2 [GB][EG][FA][GB] | [Ac]4 !fermata![ce]2 [Bd][Ac] | [GB]3 [EG] [FA]2 [DF]2 | E6 || %16
w: In that land of light and|glo- ry, Shall we|know each o- ther|there?|
w: Shall we feel their dear arms|twin- ing Fond- ly|round us, as be-|fore?|
w: And to them ’tis kind- ly|giv- en, Thus their|mor- tal friends to|know.|
w: Ev- er- more their sweet song|lin- gers, “We shall|know each o- ther|there!”|
"^Refrain" [EG][FA] | ([GB]4 [Ac][GB]) (GE) | [DF]4 E2 [GB][GB] | ([Ac]4 [ce][Bd]) ([ce][Ac]) | %20
w: ||||
w: Shall we|know * * each *|o- ther? Shall we|know * * each *|
w: We shall|know * * each *|o- ther, We shall|know * * each *|
w: ||||
 [GB]4 [EG]2 [GB][GB] | (e4 B2) ([EG][GB]) | [Ac]4 !fermata![Ae]2 [Bd][Ac] | %23
w: |||
w: o- ther? Shall we|know * each *|o- ther? Shall we|
w: o- ther, We shall|know * each *|o- ther, We shall|
w: |||
 [GB]3 [EG] [FA]2 [DF]2 | E8 |] %25
w: ||
w: know each o- ther|there?|
w: know each o- ther|there.|
w: ||
V:2
 x6 E x | x4 E4 | x6 E x | x8 | x6 E x | x4 E2 E x | x8 | E8 | x8 | x8 | x8 | x8 | x8 | x8 | x8 | %15
 E6 || x2 | x6 E2 | x4 E2 x2 | x8 | x8 | G6 x2 | x8 | x8 | E8 |] %25
V:3
 [E,G,]2 [E,B,]2 [B,,B,][B,,A,][B,,G,][B,,A,] | [E,B,]4 [E,G,]4 | %2
 [B,,B,]2 [B,,B,]2 [E,B,][E,B,][E,G,][E,B,] | [B,,B,]8 | %4
 [E,G,]2 [E,B,]2 [B,,B,][B,,A,][B,,G,][B,,A,] | [E,B,]4 [E,G,]2 [E,G,][E,A,] | %6
 [B,,B,]2 [B,,B,]2 [B,,B,]2 [B,,A,]2 | [E,G,]8 | [E,E]2 [E,B,]2 [D,B,][E,B,][A,,E][B,,B,] | %9
 [E,B,]4 [E,E]4 | [A,E]2 A,2 [A,E][A,E][A,E][A,E] | [E,E]8 | %12
 [E,B,]2 [E,B,]2 [E,B,][E,B,][E,B,][E,B,] | [A,,E]4 !fermata![A,,A,]2 [A,,E][A,,E] | %14
 [B,,B,]3 [B,,B,] [B,,B,]2 [B,,A,]2 | [E,G,]6 || z2 | z2 ([E,E][E,E] [E,E]2) (B,G,) | %18
 [B,,A,]4 [E,G,]2 z2 | z2 ([A,E][A,E] [A,E]2) [A,E]2 | [E,E]4 [E,B,]2 z2 | %21
 z2 ([E,E][E,E] [E,E]2) [E,E]2 | [A,E]4 !fermata![A,C]2 [A,E][A,E] | %23
 [B,E]3 [B,,B,] [B,,B,]2 (B,A,) | [E,G,]8 |] %25
V:4
 x8 | x8 | x8 | x8 | x8 | x8 | x8 | x8 | x8 | x8 | x2 A,2 x4 | x8 | x8 | x8 | x8 | x6 || x2 | %17
 x6 E,2 | x8 | x8 | x8 | x8 | x8 | x6 B,,2 | x8 |] %25

